X: 12
T:Hills Of Coromandel, The
M:4/4
L:1/4
Q:60
C:Dave Jordan
K:ADor
e/|&quot;Am&quot;ea<ab|&quot;Em&quot;ef<ge|&quot;E&quot;e>dcB|&quot;Am&quot;c<A-A>e|
&quot;Am&quot;ea<ab|!
&quot;Em&quot;ef<ge|&quot;E&quot;e>dcB|&quot;Am&quot;c<A-A2|
&quot;Dm&quot;BB=f>f|&quot;Am&quot;ec<A-A|
&quot;Dm&quot;BBg>=f|!
ed&quot;E&quot;e>e|
&quot;Am&quot;ea<ae|&quot;Dm&quot;gf<&quot;Am&quot;=fA|
&quot;Em&quot;Bc<dB|&quot;Am&quot;c<dee/e/|!
&quot;Dm&quot;=f<dBf|ecAA/A/|
&quot;Em&quot;B4-|&quot;E&quot;B2z/E/ E/E/|&quot;Am&quot;B<A-A2|z4|z4|z3z/:||
